packages/foundations/assets/icons/functional/images/business & payment/discount_14.svg

<svg width="14" height="14" viewBox="0 0 14 14" fill="none" xmlns="http://www.w3.org/2000/svg">
<g clip-path="url(#clip0_184_39)">
<path fill-rule="evenodd" clip-rule="evenodd" d="M7.02902 1.206C7.24053 1.20357 7.44983 1.2491 7.64121 1.33916C7.8326 1.42923 8.00109 1.56148 8.13402 1.726L8.54902 2.239L9.21802 2.081C9.42473 2.03058 9.63998 2.0261 9.8486 2.06789C10.0572 2.10968 10.2541 2.19671 10.4255 2.32285C10.5968 2.449 10.7384 2.61118 10.8403 2.79798C10.9421 2.98478 11.0018 3.19165 11.015 3.404L11.051 4.058L11.679 4.32C12.227 4.549 12.6 5.081 12.6 5.678C12.6 5.948 12.515 6.218 12.358 6.458L12.003 7L12.358 7.585C12.502 7.823 12.586 8.095 12.586 8.379C12.586 8.961 12.217 9.504 11.663 9.712L11.051 9.942L10.995 10.626C10.936 11.334 10.355 11.975 9.54502 11.975C9.41603 11.975 9.28802 11.962 9.17602 11.931L8.54902 11.761L8.10102 12.279C7.79002 12.637 7.46202 12.779 6.97102 12.794C6.75952 12.7964 6.55022 12.7509 6.35884 12.6608C6.16745 12.5708 5.99896 12.4385 5.86602 12.274L5.45102 11.761L4.78202 11.919C4.57532 11.9694 4.36007 11.9739 4.15145 11.9321C3.94283 11.8903 3.74591 11.8033 3.57457 11.6772C3.40323 11.551 3.26164 11.3888 3.15978 11.202C3.05792 11.0152 2.99827 10.8084 2.98502 10.596L2.94902 9.942L2.32002 9.682C1.76002 9.449 1.40002 8.933 1.40002 8.336C1.40002 8.052 1.48502 7.781 1.64202 7.541L1.99702 7L1.63802 6.402C1.49428 6.16701 1.41687 5.89746 1.41402 5.622C1.41402 5.039 1.78302 4.496 2.33702 4.288L2.94902 4.058L3.02002 3.376C3.04902 2.608 3.70302 2.026 4.45602 2.026C4.58402 2.026 4.71202 2.038 4.82402 2.069L5.45102 2.239L5.89602 1.719C6.19902 1.365 6.53802 1.221 7.02902 1.206ZM7.01402 2.594L6.57702 3.123C6.40015 3.33832 6.16437 3.49744 5.89851 3.58091C5.63265 3.66438 5.34823 3.66858 5.08002 3.593L4.45602 3.418L4.41302 3.447L4.37302 4.101C4.35883 4.37904 4.26372 4.64688 4.09939 4.87161C3.93507 5.09634 3.70867 5.26817 3.44802 5.366L2.83602 5.593L2.82102 5.65L3.17602 6.206C3.32002 6.431 3.40402 6.702 3.40402 6.972C3.40402 7.256 3.32002 7.526 3.16202 7.766L2.80702 8.308L2.82102 8.364L3.43402 8.604C3.95702 8.808 4.32902 9.303 4.35502 9.87L4.38502 10.525L4.42702 10.553L5.05202 10.393C5.18202 10.359 5.29402 10.34 5.42202 10.34C5.86302 10.34 6.27402 10.54 6.54502 10.878L6.95702 11.392H7.01402L7.42602 10.878C7.558 10.7146 7.7248 10.5828 7.91425 10.4921C8.10369 10.4015 8.311 10.3543 8.52102 10.354C8.64902 10.354 8.79002 10.372 8.92002 10.408L9.54402 10.582L9.58702 10.553L9.62702 9.899C9.64122 9.62096 9.73633 9.35313 9.90065 9.1284C10.065 8.90367 10.2914 8.73183 10.552 8.634L11.164 8.407L11.179 8.35L10.824 7.794C10.6774 7.56525 10.5983 7.29972 10.596 7.028C10.596 6.744 10.68 6.474 10.838 6.234L11.193 5.692L11.179 5.636L10.566 5.396C10.3069 5.29608 10.0821 5.12346 9.91876 4.89887C9.75538 4.67429 9.66032 4.40731 9.64503 4.13L9.61502 3.475L9.57302 3.447L8.94602 3.617C8.67618 3.6847 8.3926 3.67379 8.12877 3.58555C7.86493 3.49731 7.63184 3.33542 7.45702 3.119L7.04302 2.609C7.04302 2.594 7.02802 2.594 7.01402 2.594ZM4.89602 5.607C4.8951 5.51455 4.9124 5.42282 4.94693 5.33706C4.98146 5.2513 5.03255 5.17317 5.09727 5.10715C5.22798 4.97381 5.40631 4.89786 5.59302 4.896C5.77974 4.89415 5.95954 4.96654 6.09288 5.09725C6.1589 5.16197 6.21153 5.23906 6.24776 5.32413C6.28399 5.40919 6.3031 5.50055 6.30402 5.593C6.30588 5.77971 6.23349 5.95952 6.10278 6.09286C5.97206 6.22619 5.79374 6.30215 5.60702 6.304C5.42031 6.30586 5.24051 6.23347 5.10717 6.10275C4.97383 5.97204 4.89788 5.79371 4.89602 5.607ZM4.96802 8.052L8.05202 4.953L9.04702 5.948L5.94802 9.032L4.96802 8.052ZM7.69602 8.392C7.69602 8.009 8.00902 7.696 8.39302 7.696C8.53293 7.69442 8.67014 7.73456 8.78713 7.81131C8.90412 7.88805 8.99558 7.99792 9.04986 8.12688C9.10413 8.25584 9.11875 8.39805 9.09184 8.53535C9.06493 8.67265 8.99772 8.79883 8.89878 8.89776C8.79985 8.9967 8.67368 9.06391 8.53637 9.09081C8.39907 9.11772 8.25686 9.10311 8.1279 9.04884C7.99894 8.99456 7.88908 8.90309 7.81233 8.7861C7.73559 8.66911 7.69444 8.53191 7.69602 8.392Z" fill="#1A1C1F"/>
</g>
<defs>
<clipPath id="clip0_184_39">
<rect width="14" height="14" fill="white"/>
</clipPath>
</defs>
</svg>

<svg xmlns="http://www.w3.org/2000/svg" width="14" height="14" fill="none"><g clip-path="url(#a)"><path fill="#1A1C1F" fill-rule="evenodd" d="M7.029 1.206a1.4 1.4 0 0 1 1.105.52l.415.513.669-.158a1.455 1.455 0 0 1 1.797 1.323l.036.654.628.262c.548.229.921.761.921 1.358 0 .27-.085.54-.242.78L12.003 7l.355.585c.144.238.228.51.228.794 0 .582-.369 1.125-.923 1.333l-.612.23-.056.684c-.059.708-.64 1.349-1.45 1.349-.129 0-.257-.013-.369-.044l-.627-.17-.448.518c-.311.358-.639.5-1.13.515a1.4 1.4 0 0 1-1.105-.52l-.415-.513-.669.158a1.455 1.455 0 0 1-1.797-1.323l-.036-.654-.629-.26c-.56-.233-.92-.749-.92-1.346 0-.284.085-.555.242-.795L1.997 7l-.359-.598a1.5 1.5 0 0 1-.224-.78c0-.583.369-1.126.923-1.334l.612-.23.071-.682c.029-.768.683-1.35 1.436-1.35.128 0 .256.012.368.043l.627.17.445-.52c.303-.354.642-.498 1.133-.513m-.015 1.388-.437.529a1.43 1.43 0 0 1-1.497.47l-.624-.175-.043.029-.04.654a1.43 1.43 0 0 1-.925 1.265l-.612.227-.015.057.355.556c.144.225.228.496.228.766 0 .284-.084.554-.242.794l-.355.542.014.056.613.24c.523.204.895.699.921 1.266l.03.655.042.028.625-.16c.13-.034.242-.053.37-.053.441 0 .852.2 1.123.538l.412.514h.057l.412-.514a1.41 1.41 0 0 1 1.095-.524c.128 0 .269.018.399.054l.624.174.043-.029.04-.654a1.43 1.43 0 0 1 .925-1.265l.612-.227.015-.057-.355-.556a1.44 1.44 0 0 1-.228-.766c0-.284.084-.554.242-.794l.355-.542-.014-.056-.613-.24a1.44 1.44 0 0 1-.921-1.266l-.03-.655-.042-.028-.627.17a1.46 1.46 0 0 1-1.489-.498l-.414-.51c0-.015-.015-.015-.029-.015M4.896 5.607a.704.704 0 1 1 1.408-.014.704.704 0 0 1-1.408.014m.072 2.445 3.084-3.099.995.995-3.099 3.084zm2.728.34c0-.383.313-.696.697-.696a.704.704 0 1 1-.697.696" clip-rule="evenodd"/></g><defs><clipPath id="a"><path fill="#fff" d="M0 0h14v14H0z"/></clipPath></defs></svg>
